assets/svgs/extras/brand/Brand1.svg

<svg id="emoji" viewBox="0 0 72 72" xmlns="http://www.w3.org/2000/svg">
  <g id="color">
    <path fill="#ea5a47" d="M36 64.0001C51.464 64.0001 64 51.4641 64 36.0001C64 20.5361 51.464 8.0001 36 8.0001C20.536 8.0001 8 20.5361 8 36.0001C8 51.4641 20.536 64.0001 36 64.0001Z"/>
    <path fill="#fff" fill-rule="evenodd" d="M49.4735 22.6035C52.4478 25.5948 54.4327 29.571 54.896 34L47.8341 34C46.8819 28.3246 41.946 24 36 24C34.3793 24 32.8337 24.3213 31.4233 24.9036L27.6797 18.9139C30.1925 17.6879 33.0159 17 36 17C37.6895 17 39.3276 17.2205 40.8869 17.6344C40.9673 17.4436 41.0605 17.2557 41.1667 17.0718C42.5474 14.6803 45.6053 13.861 47.9968 15.2417C50.3883 16.6224 51.2076 19.6803 49.8269 22.0718C49.719 22.2588 49.6008 22.4361 49.4735 22.6035ZM17.6533 40.9577C17.4395 40.9856 17.2214 41 17 41C14.2386 41 12 38.7614 12 36C12 33.2386 14.2386 31 17 31C17.2214 31 17.4395 31.0144 17.6533 31.0423C18.7365 27.0241 21.1045 23.533 24.2895 21.0368L28.0329 27.0262C25.5588 29.2244 24 32.4301 24 36C24 39.5699 25.5588 42.7756 28.0329 44.9738L24.2895 50.9632C21.1045 48.467 18.7365 44.9759 17.6533 40.9577ZM49.4846 49.3852C49.6149 49.5556 49.7357 49.7364 49.8458 49.9271C51.2265 52.3186 50.4071 55.3765 48.0157 56.7572C45.6242 58.1379 42.5663 57.3186 41.1855 54.9271C41.0787 54.742 40.985 54.553 40.9042 54.361C39.3397 54.7778 37.6958 55 36 55C33.0159 55 30.1925 54.3121 27.6797 53.0861L31.4233 47.0964C32.8337 47.6787 34.3793 48 36 48C41.946 48 46.8819 43.6754 47.8341 38L54.896 38C54.4333 42.4234 52.4528 46.3952 49.4846 49.3852Z" clip-rule="evenodd"/>
  </g>
  <g id="line">
    <path fill="#000" d="M54.896 34L54.896 35C55.1793 35 55.4493 34.8798 55.639 34.6693C55.8286 34.4588 55.92 34.1777 55.8906 33.8959L54.896 34ZM49.4735 22.6035L48.6775 21.9983C48.3754 22.3955 48.4125 22.9547 48.7644 23.3086L49.4735 22.6035ZM47.8341 34L46.8479 34.1654C46.9287 34.6471 47.3456 35 47.8341 35L47.8341 34ZM31.4233 24.9036L30.5753 25.4336C30.834 25.8476 31.3537 26.0142 31.8049 25.8279L31.4233 24.9036ZM27.6797 18.9139L27.2412 18.0151C26.9865 18.1394 26.7965 18.3659 26.7184 18.6383C26.6403 18.9108 26.6815 19.2035 26.8317 19.4439L27.6797 18.9139ZM40.8869 17.6344L40.6303 18.6009C41.1121 18.7288 41.6145 18.4823 41.8083 18.023L40.8869 17.6344ZM41.1667 17.0718L40.3007 16.5718L40.3007 16.5718L41.1667 17.0718ZM47.9968 15.2417L47.4968 16.1077L47.4968 16.1077L47.9968 15.2417ZM49.8269 22.0718L50.693 22.5718L50.693 22.5718L49.8269 22.0718ZM17.6533 40.9577L18.6188 40.6974C18.4885 40.2139 18.0205 39.9013 17.5239 39.9661L17.6533 40.9577ZM17.6533 31.0423L17.5239 32.0339C18.0205 32.0987 18.4885 31.7861 18.6188 31.3026L17.6533 31.0423ZM24.2895 21.0368L25.1375 20.5068C24.9872 20.2663 24.7418 20.1009 24.4624 20.0519C24.183 20.0029 23.8959 20.0748 23.6727 20.2497L24.2895 21.0368ZM28.0329 27.0262L28.6971 27.7738C29.0618 27.4498 29.1395 26.9099 28.8809 26.4962L28.0329 27.0262ZM28.0329 44.9738L28.8809 45.5038C29.1395 45.0901 29.0618 44.5502 28.6971 44.2262L28.0329 44.9738ZM24.2895 50.9632L23.6727 51.7502C23.8959 51.9252 24.183 51.9971 24.4624 51.9481C24.7418 51.8991 24.9872 51.7337 25.1375 51.4932L24.2895 50.9632ZM49.8458 49.9271L50.7118 49.4271L50.7118 49.4271L49.8458 49.9271ZM49.4846 49.3852L48.7749 48.6807C48.4229 49.0354 48.3867 49.5955 48.6902 49.9925L49.4846 49.3852ZM48.0157 56.7572L48.5157 57.6233L48.5157 57.6233L48.0157 56.7572ZM41.1855 54.9271L40.3195 55.4271L40.3195 55.4271L41.1855 54.9271ZM40.9042 54.361L41.8259 53.9731C41.6323 53.5131 41.1291 53.2662 40.6468 53.3947L40.9042 54.361ZM27.6797 53.0861L26.8317 52.5561C26.6815 52.7965 26.6403 53.0892 26.7184 53.3617C26.7965 53.6341 26.9865 53.8606 27.2412 53.9849L27.6797 53.0861ZM31.4233 47.0964L31.8049 46.172C31.3537 45.9858 30.834 46.1524 30.5753 46.5664L31.4233 47.0964ZM47.8341 38L47.8341 37C47.3456 37 46.9287 37.3528 46.8479 37.8345L47.8341 38ZM54.896 38L55.8906 38.104C55.92 37.8223 55.8286 37.5412 55.639 37.3307C55.4493 37.1202 55.1793 37 54.896 37L54.896 38ZM55.8906 33.8959C55.4027 29.2321 53.3122 25.046 50.1826 21.8985L48.7644 23.3086C51.5834 26.1437 53.4627 29.91 53.9014 34.104L55.8906 33.8959ZM47.8341 35L54.896 35L54.896 33L47.8341 33L47.8341 35ZM36 25C41.4495 25 45.9752 28.9637 46.8479 34.1654L48.8203 33.8345C47.7887 27.6854 42.4425 23 36 23V25ZM31.8049 25.8279C33.0964 25.2947 34.5125 25 36 25V23C34.2461 23 32.5709 23.3479 31.0416 23.9793L31.8049 25.8279ZM26.8317 19.4439L30.5753 25.4336L32.2713 24.3736L28.5277 18.3839L26.8317 19.4439ZM36 16C32.8607 16 29.8876 16.724 27.2412 18.0151L28.1181 19.8126C30.4974 18.6518 33.1711 18 36 18V16ZM41.1434 16.6678C39.5011 16.232 37.7769 16 36 16V18C37.6022 18 39.154 18.2091 40.6303 18.6009L41.1434 16.6678ZM41.8083 18.023C41.8726 17.8704 41.9473 17.7197 42.0327 17.5718L40.3007 16.5718C40.1737 16.7918 40.062 17.0168 39.9655 17.2458L41.8083 18.023ZM42.0327 17.5718C43.1373 15.6586 45.5836 15.0031 47.4968 16.1077L48.4968 14.3756C45.6271 12.7188 41.9575 13.702 40.3007 16.5718L42.0327 17.5718ZM47.4968 16.1077C49.41 17.2123 50.0655 19.6586 48.9609 21.5718L50.693 22.5718C52.3498 19.702 51.3666 16.0325 48.4968 14.3756L47.4968 16.1077ZM48.9609 21.5718C48.8741 21.7221 48.7793 21.8643 48.6775 21.9983L50.2695 23.2088C50.4223 23.0079 50.5639 22.7954 50.693 22.5718L48.9609 21.5718ZM17 42C17.2648 42 17.5261 41.9828 17.7827 41.9493L17.5239 39.9661C17.3529 39.9884 17.178 40 17 40V42ZM11 36C11 39.3137 13.6863 42 17 42V40C14.7909 40 13 38.2091 13 36H11ZM17 30C13.6863 30 11 32.6863 11 36H13C13 33.7909 14.7909 32 17 32V30ZM17.7827 30.0507C17.5261 30.0172 17.2648 30 17 30V32C17.178 32 17.3529 32.0116 17.5239 32.0339L17.7827 30.0507ZM18.6188 31.3026C19.6444 27.498 21.8874 24.19 24.9064 21.8239L23.6727 20.2497C20.3216 22.8761 17.8285 26.5502 16.6878 30.782L18.6188 31.3026ZM23.4415 21.5668L27.1849 27.5562L28.8809 26.4962L25.1375 20.5068L23.4415 21.5668ZM27.3687 26.2787C24.6901 28.6585 23 32.1325 23 36H25C25 32.7278 26.4275 29.7902 28.6971 27.7738L27.3687 26.2787ZM23 36C23 39.8675 24.6901 43.3415 27.3687 45.7213L28.6971 44.2262C26.4275 42.2098 25 39.2722 25 36H23ZM27.1849 44.4438L23.4415 50.4332L25.1375 51.4932L28.8809 45.5038L27.1849 44.4438ZM24.9064 50.1761C21.8874 47.81 19.6444 44.502 18.6188 40.6974L16.6878 41.218C17.8285 45.4498 20.3216 49.1239 23.6727 51.7502L24.9064 50.1761ZM50.7118 49.4271C50.5801 49.199 50.4354 48.9824 50.2791 48.7779L48.6902 49.9925C48.7944 50.1288 48.8912 50.2737 48.9798 50.4271L50.7118 49.4271ZM48.5157 57.6233C51.3854 55.9664 52.3687 52.2969 50.7118 49.4271L48.9798 50.4271C50.0843 52.3403 49.4288 54.7866 47.5157 55.8912L48.5157 57.6233ZM40.3195 55.4271C41.9764 58.2969 45.6459 59.2801 48.5157 57.6233L47.5157 55.8912C45.6025 56.9958 43.1561 56.3403 42.0516 54.4271L40.3195 55.4271ZM39.9825 54.7489C40.0795 54.9793 40.1917 55.2058 40.3195 55.4271L42.0516 54.4271C41.9657 54.2783 41.8906 54.1267 41.8259 53.9731L39.9825 54.7489ZM40.6468 53.3947C39.1655 53.7894 37.6081 54 36 54V56C37.7835 56 39.5139 55.7663 41.1617 55.3273L40.6468 53.3947ZM36 54C33.1711 54 30.4974 53.3481 28.1181 52.1874L27.2412 53.9849C29.8876 55.276 32.8607 56 36 56V54ZM28.5277 53.6161L32.2713 47.6264L30.5753 46.5664L26.8317 52.5561L28.5277 53.6161ZM31.0416 48.0207C32.5709 48.6521 34.2461 49 36 49V47C34.5125 47 33.0964 46.7053 31.8049 46.172L31.0416 48.0207ZM36 49C42.4425 49 47.7887 44.3146 48.8203 38.1654L46.8479 37.8345C45.9752 43.0363 41.4495 47 36 47V49ZM47.8341 39L54.896 39L54.896 37L47.8341 37L47.8341 39ZM53.9014 37.8959C53.4632 42.0848 51.5881 45.8468 48.7749 48.6807L50.1943 50.0897C53.3175 46.9436 55.4033 42.7621 55.8906 38.104L53.9014 37.8959Z"/>
    <path fill="none" stroke="#000" stroke-linejoin="round" stroke-width="2" d="M36 64.0001C51.464 64.0001 64 51.4641 64 36.0001C64 20.5361 51.464 8.0001 36 8.0001C20.536 8.0001 8 20.5361 8 36.0001C8 51.4641 20.536 64.0001 36 64.0001Z"/>
  </g>
</svg>

<svg xmlns="http://www.w3.org/2000/svg" viewBox="0 0 72 72"><path fill="#ea5a47" d="M36 64c15.464 0 28-12.536 28-28S51.464 8 36 8 8 20.536 8 36s12.536 28 28 28z"/><path fill="#fff" fill-rule="evenodd" d="M49.474 22.604A18.94 18.94 0 0154.895 34h-7.062C46.882 28.325 41.946 24 36 24c-1.62 0-3.166.321-4.577.904l-3.743-5.99A18.922 18.922 0 0136 17c1.69 0 3.328.22 4.887.634a5 5 0 118.587 4.97zm-31.82 18.354a5 5 0 110-9.915 19.017 19.017 0 016.636-10.006l3.743 5.99A11.97 11.97 0 0024 36a11.97 11.97 0 004.033 8.974l-3.744 5.99a19.017 19.017 0 01-6.636-10.006zm31.83 8.427a5 5 0 11-8.58 4.976A19.027 19.027 0 0136 55c-2.984 0-5.808-.688-8.32-1.914l3.743-5.99C32.833 47.68 34.38 48 36 48c5.946 0 10.882-4.325 11.834-10h7.062a18.94 18.94 0 01-5.411 11.385z" clip-rule="evenodd"/><g><path d="M54.896 34v1a1 1 0 00.995-1.104l-.995.104zm-5.422-11.396l-.796-.606a1 1 0 00.086 1.31l.71-.704zM47.834 34l-.986.165a1 1 0 00.986.835v-1zm-16.41-9.096l-.849.53a1 1 0 001.23.394l-.382-.924zm-3.744-5.99l-.439-.899a1 1 0 00-.41 1.429l.849-.53zm13.207-1.28l-.257.967a1 1 0 001.178-.578l-.921-.389zm.28-.562l-.866-.5.866.5zm6.83-1.83l-.5.866.5-.866zm1.83 6.83l.866.5-.866-.5zM17.653 40.958l.966-.26a1 1 0 00-1.095-.732l.13.992zm0-9.916l-.13.992a1 1 0 001.096-.731l-.966-.26zm6.637-10.005l.848-.53a1 1 0 00-1.465-.257l.617.787zm3.743 5.99l.664.747a1 1 0 00.184-1.278l-.848.53zm0 17.947l.848.53a1 1 0 00-.184-1.278l-.664.748zm-3.744 5.99l-.616.786a1 1 0 001.465-.257l-.849-.53zm25.557-1.037l.866-.5-.866.5zm-.361-.542l-.71-.704a1 1 0 00-.085 1.312l.795-.608zm-1.47 7.372l.5.866-.5-.866zm-6.83-1.83l-.866.5.866-.5zm-.28-.566l.92-.388a1 1 0 00-1.178-.578l.257.966zM27.68 53.086l-.848-.53a1 1 0 00.41 1.429l.438-.899zm3.743-5.99l.382-.924a1 1 0 00-1.23.394l.848.53zM47.834 38v-1a1 1 0 00-.986.834l.986.166zm7.062 0l.995.104A1 1 0 0054.896 37v1zm.995-4.104a19.941 19.941 0 00-5.708-11.998l-1.419 1.41a17.94 17.94 0 015.137 10.796l1.99-.208zM47.834 35h7.062v-2h-7.062v2zM36 25c5.45 0 9.975 3.964 10.848 9.165l1.972-.33C47.79 27.684 42.443 23 36 23v2zm-4.195.828A10.966 10.966 0 0136 25v-2c-1.754 0-3.43.348-4.958.98l.763 1.848zm-4.973-6.384l3.743 5.99 1.696-1.06-3.743-5.99-1.696 1.06zM36 16c-3.14 0-6.112.724-8.759 2.015l.877 1.798A17.923 17.923 0 0136 18v-2zm5.143.668A20.03 20.03 0 0036 16v2c1.602 0 3.154.21 4.63.6l.513-1.932zm.665 1.355c.065-.153.14-.303.225-.451l-1.732-1c-.127.22-.239.445-.336.674l1.843.777zm.225-.451a4 4 0 015.464-1.464l1-1.732a6 6 0 00-8.196 2.196l1.732 1zm5.464-1.464a4 4 0 011.464 5.464l1.732 1a6 6 0 00-2.196-8.196l-1 1.732zm1.464 5.464c-.087.15-.182.292-.283.426l1.592 1.21c.152-.2.294-.413.423-.636l-1.732-1zM17 42c.265 0 .526-.017.783-.05l-.26-1.984A4.05 4.05 0 0117 40v2zm-6-6a6 6 0 006 6v-2a4 4 0 01-4-4h-2zm6-6a6 6 0 00-6 6h2a4 4 0 014-4v-2zm.783.05A6.045 6.045 0 0017 30v2c.178 0 .353.012.524.034l.259-1.983zm.836 1.253a18.017 18.017 0 016.287-9.48l-1.233-1.573a20.017 20.017 0 00-6.985 10.532l1.93.52zm4.823-9.736l3.743 5.99 1.696-1.06-3.744-5.99-1.695 1.06zm3.927 4.712A12.97 12.97 0 0023 36h2a10.97 10.97 0 013.697-8.226l-1.328-1.495zM23 36a12.97 12.97 0 004.369 9.721l1.328-1.495A10.97 10.97 0 0125 36h-2zm4.185 8.444l-3.743 5.99 1.695 1.06 3.744-5.99-1.696-1.06zm-2.279 5.732a18.017 18.017 0 01-6.287-9.479l-1.931.521a20.016 20.016 0 006.985 10.532l1.233-1.574zm25.806-.749a6.052 6.052 0 00-.433-.65l-1.589 1.215c.104.137.201.282.29.435l1.732-1zm-2.196 8.196a6 6 0 002.196-8.196l-1.732 1a4 4 0 01-1.464 5.464l1 1.732zm-8.197-2.196a6 6 0 008.197 2.196l-1-1.732a4 4 0 01-5.464-1.464l-1.733 1zm-.337-.678c.098.23.21.457.337.678l1.733-1a4.06 4.06 0 01-.226-.454l-1.843.776zm.665-1.354A18.024 18.024 0 0136 54v2c1.783 0 3.514-.234 5.162-.673l-.515-1.932zM36 54c-2.829 0-5.503-.652-7.882-1.813l-.877 1.798A19.924 19.924 0 0036 56v-2zm-7.472-.384l3.743-5.99-1.696-1.06-3.743 5.99 1.696 1.06zm2.514-5.595C32.57 48.652 34.246 49 36 49v-2c-1.487 0-2.904-.295-4.195-.828l-.763 1.849zM36 49c6.443 0 11.789-4.685 12.82-10.835l-1.972-.33C45.975 43.035 41.45 47 36 47v2zm11.834-10h7.062v-2h-7.062v2zm6.067-1.104a17.94 17.94 0 01-5.126 10.785l1.42 1.409a19.94 19.94 0 005.696-11.986l-1.99-.208z"/><path fill="none" stroke="#000" stroke-linejoin="round" stroke-width="2" d="M36 64c15.464 0 28-12.536 28-28S51.464 8 36 8 8 20.536 8 36s12.536 28 28 28z"/></g></svg>
